src/assets/sausage-icon.svg

<svg width="26" height="26" viewBox="0 0 26 26" fill="none" xmlns="http://www.w3.org/2000/svg">
<path d="M24.7812 4.46875H23.5625C23.4548 4.46875 23.3514 4.42595 23.2752 4.34976C23.1991 4.27358 23.1562 4.17024 23.1562 4.0625V2.84375C23.1562 2.73601 23.1991 2.63267 23.2752 2.55649C23.3514 2.4803 23.4548 2.4375 23.5625 2.4375C23.6702 2.4375 23.7736 2.4803 23.8498 2.55649C23.9259 2.63267 23.9688 2.73601 23.9688 2.84375V3.65625H24.7812C24.889 3.65625 24.9923 3.69905 25.0685 3.77524C25.1447 3.85142 25.1875 3.95476 25.1875 4.0625C25.1875 4.17024 25.1447 4.27358 25.0685 4.34976C24.9923 4.42595 24.889 4.46875 24.7812 4.46875Z" fill="#EFEFEF"/>
<path d="M2.4375 4.875H1.21875C1.11101 4.875 1.00767 4.8322 0.931488 4.75601C0.855301 4.67983 0.8125 4.57649 0.8125 4.46875C0.8125 4.36101 0.855301 4.25767 0.931488 4.18149C1.00767 4.1053 1.11101 4.0625 1.21875 4.0625H2.03125V3.25C2.03125 3.14226 2.07405 3.03892 2.15024 2.96274C2.22642 2.88655 2.32976 2.84375 2.4375 2.84375C2.54524 2.84375 2.64858 2.88655 2.72476 2.96274C2.80095 3.03892 2.84375 3.14226 2.84375 3.25V4.46875C2.84375 4.57649 2.80095 4.67983 2.72476 4.75601C2.64858 4.8322 2.54524 4.875 2.4375 4.875Z" fill="#EFEFEF"/>
<path d="M23.6533 4.07523C23.1581 3.58007 22.4865 3.30189 21.7862 3.30189C21.0859 3.30189 20.4143 3.58007 19.9191 4.07523C19.0126 4.98666 17.9343 5.70923 16.7467 6.20113C15.5591 6.69302 14.2857 6.94447 13.0002 6.94092C11.7148 6.94447 10.4414 6.69302 9.25374 6.20113C8.06612 5.70923 6.98786 4.98666 6.08137 4.07523C5.58612 3.57998 4.91443 3.30176 4.21404 3.30176C3.51366 3.30176 2.84196 3.57998 2.34671 4.07523C1.85147 4.57048 1.57324 5.24217 1.57324 5.94256C1.57324 6.64294 1.85147 7.31464 2.34671 7.80989C4.35337 9.81945 6.88909 11.2183 9.65921 11.8439H9.84243L10.1565 9.75014H11.7815V11.3577L11.7477 12.1637C12.1633 12.1982 12.585 12.2157 13.0002 12.2157C13.4154 12.2157 13.8371 12.1982 14.2523 12.1637L14.219 11.3581V9.75014H15.844L16.143 11.8439H16.3396C16.8871 11.7174 17.4269 11.5598 17.9565 11.3719C17.9751 11.3707 17.9935 11.3682 18.0117 11.3642C20.1373 10.6211 22.0669 9.40592 23.6553 7.80989C23.9006 7.56468 24.0951 7.27356 24.2278 6.95316C24.3606 6.63277 24.4289 6.28936 24.4289 5.94256C24.4289 5.59576 24.3606 5.25235 24.2278 4.93195C24.0951 4.61156 23.9006 4.32044 23.6553 4.07523H23.6533Z" fill="#F2C247"/>
<path d="M11.7814 23.9688C11.6737 23.9688 11.5703 23.926 11.4941 23.8498C11.418 23.7736 11.3752 23.6703 11.3752 23.5626V18.4414C10.6041 18.1426 9.9565 17.5923 9.53732 16.8795C9.11814 16.1667 8.95193 15.3332 9.06563 14.5141L9.75625 9.69237C9.77155 9.5857 9.8286 9.48948 9.91484 9.42487C10.0011 9.36027 10.1095 9.33257 10.2161 9.34787C10.3228 9.36317 10.419 9.42021 10.4836 9.50646C10.5482 9.5927 10.5759 9.70108 10.5606 9.80774L9.87 14.6291C9.77598 15.3069 9.9287 15.9959 10.3003 16.5705C10.6719 17.1451 11.2376 17.567 11.8943 17.7593C11.979 17.7837 12.0535 17.835 12.1064 17.9054C12.1594 17.9758 12.1881 18.0616 12.1881 18.1497V23.5626C12.1881 23.6159 12.1775 23.6688 12.1571 23.7181C12.1367 23.7674 12.1067 23.8122 12.0689 23.85C12.0312 23.8877 11.9863 23.9176 11.937 23.938C11.8877 23.9584 11.8348 23.9689 11.7814 23.9688Z" fill="#EFEFEF"/>
<path d="M13 16.25C12.569 16.25 12.1557 16.0788 11.851 15.774C11.5462 15.4693 11.375 15.056 11.375 14.625V9.75C11.375 9.64226 11.4178 9.53892 11.494 9.46274C11.5702 9.38655 11.6735 9.34375 11.7812 9.34375C11.889 9.34375 11.9923 9.38655 12.0685 9.46274C12.1447 9.53892 12.1875 9.64226 12.1875 9.75V14.625C12.1875 14.8405 12.2731 15.0472 12.4255 15.1995C12.5778 15.3519 12.7845 15.4375 13 15.4375C13.2155 15.4375 13.4222 15.3519 13.5745 15.1995C13.7269 15.0472 13.8125 14.8405 13.8125 14.625V9.75C13.8125 9.64226 13.8553 9.53892 13.9315 9.46274C14.0077 9.38655 14.111 9.34375 14.2188 9.34375C14.3265 9.34375 14.4298 9.38655 14.506 9.46274C14.5822 9.53892 14.625 9.64226 14.625 9.75V14.625C14.625 15.056 14.4538 15.4693 14.149 15.774C13.8443 16.0788 13.431 16.25 13 16.25Z" fill="#EFEFEF"/>
<path d="M14.2187 23.9688C14.111 23.9688 14.0077 23.926 13.9315 23.8498C13.8553 23.7736 13.8125 23.6703 13.8125 23.5626V18.1497C13.8125 18.0616 13.8411 17.9758 13.8941 17.9054C13.9471 17.835 14.0215 17.7837 14.1062 17.7593C14.7629 17.567 15.3286 17.1451 15.7001 16.5705C16.0717 15.9959 16.2243 15.3069 16.1302 14.6291L15.4395 9.80774C15.4242 9.70108 15.4519 9.5927 15.5165 9.50646C15.5811 9.42021 15.6774 9.36317 15.784 9.34787C15.8907 9.33257 15.9991 9.36027 16.0853 9.42487C16.1716 9.48948 16.2286 9.5857 16.2439 9.69237L16.9345 14.5141C17.048 15.3332 16.8817 16.1665 16.4625 16.8793C16.0434 17.592 15.3959 18.1424 14.625 18.4414V23.5626C14.625 23.6703 14.5822 23.7736 14.506 23.8498C14.4298 23.926 14.3265 23.9688 14.2187 23.9688Z" fill="#EFEFEF"/>
</svg>

<svg xmlns="http://www.w3.org/2000/svg" width="26" height="26" fill="none" viewBox="0 0 26 26">
    <path fill="#EFEFEF" d="M24.781 4.469h-1.218a.406.406 0 0 1-.407-.407V2.845a.407.407 0 0 1 .813 0v.812h.812a.406.406 0 1 1 0 .813ZM2.438 4.875h-1.22a.406.406 0 1 1 0-.813h.813V3.25a.406.406 0 1 1 .813 0v1.219a.406.406 0 0 1-.406.406Z"/>
    <path fill="#F2C247" d="M23.653 4.075a2.64 2.64 0 0 0-3.734 0A9.72 9.72 0 0 1 13 6.941a9.72 9.72 0 0 1-6.919-2.866A2.64 2.64 0 1 0 2.347 7.81a15.005 15.005 0 0 0 7.312 4.034h.183l.314-2.094h1.625v1.608l-.033.806a15.21 15.21 0 0 0 2.504 0l-.033-.806V9.75h1.625l.299 2.094h.197a14.799 14.799 0 0 0 1.616-.472.367.367 0 0 0 .056-.008 14.899 14.899 0 0 0 5.643-3.554 2.64 2.64 0 0 0 0-3.735h-.002Z"/>
    <path fill="#EFEFEF" d="M11.781 23.969a.406.406 0 0 1-.406-.406V18.44a3.67 3.67 0 0 1-2.31-3.927l.691-4.822a.406.406 0 0 1 .805.116l-.691 4.821a2.853 2.853 0 0 0 2.024 3.13.406.406 0 0 1 .294.39v5.414a.407.407 0 0 1-.407.406Z"/>
    <path fill="#EFEFEF" d="M13 16.25a1.625 1.625 0 0 1-1.625-1.625V9.75a.406.406 0 1 1 .813 0v4.875a.812.812 0 1 0 1.624 0V9.75a.406.406 0 1 1 .813 0v4.875A1.625 1.625 0 0 1 13 16.25Z"/>
    <path fill="#EFEFEF" d="M14.219 23.969a.406.406 0 0 1-.406-.406V18.15a.406.406 0 0 1 .293-.39 2.853 2.853 0 0 0 2.024-3.13l-.69-4.822a.406.406 0 1 1 .804-.116l.69 4.822a3.671 3.671 0 0 1-2.309 3.927v5.122a.406.406 0 0 1-.406.406Z"/>
</svg>
